X:1
T:Title
%%score { 1 | 2 }
L:1/8
M:4/4
K:F
V:1 treble nm="Grand Piano"
V:2 bass 
V:1
 z2[Q:1/4=100] A2- A_A =A2 |[M:3/4] F3 G A2 | [EG]3 [DF] [EG]2 | [FA]6 | [Ac]3 [GB] A2 | %5
 G2 A2 =B2 | [Ec]6 | A3 _A =A2 | F3 G A2 | [FB]3 [Fc] [Fd]2 | [Fc]6 | [CFA]3 [B,EG] [A,F]2 | %12
 [B,DG]3 [A,CF] [G,CE]2 | [A,CF]6 | [EG]3 [FA] [EG]2 | [GB]3 [FA] [EG]2 | A3 c d2 | c6 | %18
 [EG]3 [FA] [EG]2 | G2 A2 =B2 | [Ec]6 | A3 _A =A2 | F3 G A2 | [FB]3 [Fc] [Fd]2 | [Fc]6 | %25
 [CFA]3 [B,DG] [A,F]2 | [B,DG]3 [A,CF] [G,CE]2 | [A,CF]6 |] %28
V:2
 z2 [F,CF]2- [F,CF][F,=B,F] [F,CF]2 |[M:3/4] [A,C]3 [G,CE] [F,CF]2 | [C,C]3 [C,C] [C,C]2 | [F,C]6 | %4
 [F,C]3 [F,C][K:treble] [F,CF]2 | [G,=B,F]2 [G,CF]2 [G,DF]2 | [C,C]6 | [F,CF]3 [F,=B,F] [F,CF]2 | %8
 [A,C]3 [G,CE] [F,CF]2 | [D,B,]3 [C,A,] [B,,B,]2 | [F,A,]6 | F,3 C, D,2 | B,,3 C, C,2 | F,6 | %14
 [C,C]3 [C,C] [C,C]2 | [C,C]3 [C,C] [C,C]2 | [F,CF]3 [F,A,F] [F,B,F]2 | [F,A,F]6 | %18
 [C,C]3 [C,C] [C,C]2 | [G,=B,F]2 [G,CF]2 [G,DF]2 | [C,C]6 | [F,CF]3 [F,B,F] [F,CF]2 | %22
 [A,C]3 [G,CE] [F,CF]2 | [D,B,]3 [C,A,] [B,,B,]2 | [F,A,]6 | F,3 C, D,2 | B,,3 C, C,2 | F,6 |] %28

